X:65
T:Bruce O'Brien's Refusal
B:Terry "Cuz" Teahan "Sliabh Luachra on Parade" 1980
Z:Patrick Cavanagh
M:4/4
L:1/8
R:Highland
K:G
| DGGA B/c/d ed | eaaf gedB | eaaf gedB | aged eAAG :| 
| GBBA dBBA | B/c/d ed aged | GBBA dBBA | aged eAAG :|| 

